Numix-GalliumOS/16/devices/media-floppy.svg

<?xml version="1.0" encoding="UTF-8" standalone="no"?>
<svg
   xmlns:dc="http://purl.org/dc/elements/1.1/"
   xmlns:cc="http://creativecommons.org/ns#"
   xmlns:rdf="http://www.w3.org/1999/02/22-rdf-syntax-ns#"
   xmlns:svg="http://www.w3.org/2000/svg"
   xmlns="http://www.w3.org/2000/svg"
   xmlns:sodipodi="http://sodipodi.sourceforge.net/DTD/sodipodi-0.dtd"
   xmlns:inkscape="http://www.inkscape.org/namespaces/inkscape"
   width="16"
   height="16"
   viewBox="0 0 16 16"
   id="svg2"
   version="1.1"
   inkscape:version="0.91 r"
   sodipodi:docname="system-floppy.svg">
  <metadata
     id="metadata10">
    <rdf:RDF>
      <cc:Work
         rdf:about="">
        <dc:format>image/svg+xml</dc:format>
        <dc:type
           rdf:resource="http://purl.org/dc/dcmitype/StillImage" />
      </cc:Work>
    </rdf:RDF>
  </metadata>
  <defs
     id="defs8" />
  <sodipodi:namedview
     pagecolor="#ffffff"
     bordercolor="#666666"
     borderopacity="1"
     objecttolerance="10"
     gridtolerance="10"
     guidetolerance="10"
     inkscape:pageopacity="0"
     inkscape:pageshadow="2"
     inkscape:window-width="1366"
     inkscape:window-height="704"
     id="namedview6"
     showgrid="false"
     inkscape:zoom="14.75"
     inkscape:cx="8"
     inkscape:cy="8"
     inkscape:window-x="0"
     inkscape:window-y="27"
     inkscape:window-maximized="1"
     inkscape:current-layer="svg2" />
  <path
     style="fill:#002b36;stroke:none"
     d="M -2.2e-7,2.5e-7 -2.2e-7,16 16,16 16,3.0000002 13,2.5e-7 z"
     id="path2989"
     inkscape:connector-curvature="0" />
  <path
     style="fill:#93a1a1;stroke:none"
     d="m 12,2.5e-7 0,3.99999995 -6,0 L 6,2.5e-7 z"
     id="path3759"
     inkscape:connector-curvature="0" />
  <path
     style="fill:#eee8d5;stroke:none"
     d="M 1.9999997,6.0000002 1.9999997,16 14,16 14,6.0000002 z"
     id="path3761"
     inkscape:connector-curvature="0" />
  <path
     style="fill:#002b36;stroke:none"
     d="m 11,1.0000002 0,2 -1.0000002,0 0,-2 z"
     id="path3763"
     inkscape:connector-curvature="0" />
  <path
     style="fill:#002b36;stroke:none"
     d="M 2.9999997,9.0000004 2.9999997,10 13,10 13,9.0000004 z"
     id="path3765"
     inkscape:connector-curvature="0" />
  <path
     style="fill:#002b36;stroke:none"
     d="m 13,13 -10.0000003,0 0,1 L 13,14 z"
     id="path3767"
     inkscape:connector-curvature="0" />
  <path
     style="fill:#fdf6e3;fill-opacity:0.22891564;stroke:none"
     d="M 14,1.0000002 14,16 15,16 15,2.0000002 z"
     id="path3769"
     inkscape:connector-curvature="0" />
</svg>

<svg xmlns="http://www.w3.org/2000/svg" viewBox="0 0 16 16">
 <path d="m 0 0 0 16 16 0 0 -13 -3 -3 z" style="fill:#002b36;stroke:none"/>
 <path d="m 12 0 0 4 -6 0 l 0 -4 z" style="fill:#93a1a1;stroke:none"/>
 <path d="m 2 6 0 10 12 0 0 -10 z" style="fill:#eee8d5;stroke:none"/>
 <path d="m 11 1 0 2 -1 0 0 -2 z" style="fill:#002b36;stroke:none"/>
 <path d="m 3 9 0 1 10 0 0 -1 z" style="fill:#002b36;stroke:none"/>
 <path d="m 13 13 -10 0 0 1 l 10 0 z" style="fill:#002b36;stroke:none"/>
 <path d="m 14 1 0 15 1 0 0 -14 z" style="fill:#fdf6e3;fill-opacity:0.229;stroke:none"/>
</svg>
